packages/core/src/svgs/networks/branded/cronos-zkevm.svg

<svg width="24" height="24" viewBox="0 0 24 24" fill="none" xmlns="http://www.w3.org/2000/svg">
<path d="M12.0034 2L3.25 7.00167V17.0016L12.0034 22L20.75 17.0016V7.00167L12.0034 2ZM18.1585 15.52L12.0034 19.0365L5.84485 15.52V8.48005L12.0034 4.96346L18.1585 8.48005V15.52Z" fill="#051221"/>
<path d="M16.0843 14.3375L11.9989 16.6706L7.91016 14.3375V9.66759L11.9989 7.33105L16.0843 9.66759L14.3838 10.6398L11.9989 9.2754L9.61404 10.6398V13.3618L11.9989 14.7263L14.3838 13.3618L16.0843 14.3375Z" fill="#051221"/>
</svg>

<svg xmlns="http://www.w3.org/2000/svg" width="24" height="24" fill="none" viewBox="0 0 24 24">
    <path fill="#051221" d="M12.003 2 3.25 7.002v10L12.003 22l8.747-4.998v-10zm6.156 13.52-6.156 3.517-6.158-3.517V8.48l6.158-3.517L18.16 8.48z"/>
    <path fill="#051221" d="M16.084 14.338 12 16.67l-4.09-2.332v-4.67L12 7.33l4.085 2.337-1.7.972L12 9.274l-2.385 1.365v2.722L12 14.725l2.385-1.364z"/>
</svg>
